docs/.gitbook/assets/icon-rocket-16@dark.svg

<svg width="32" height="32" viewBox="0 0 16 16" fill="none" xmlns="http://www.w3.org/2000/svg">
<rect x="0" y="0" width="16" height="16" fill="#181c1f"/>
<path fill-rule="evenodd" clip-rule="evenodd" d="M8 1.75L8.64682 1.37037C8.51216 1.14093 8.26604 1 8 1C7.73396 1 7.48784 1.14093 7.35318 1.37037L8 1.75ZM8 1.75C7.35318 1.37037 7.35313 1.37045 7.35307 1.37055L7.35288 1.37087L7.3523 1.37187L7.35024 1.37539L7.34267 1.38835L7.31426 1.43731C7.28961 1.47992 7.25381 1.54216 7.20845 1.62191C7.11773 1.78138 6.98867 2.01106 6.83403 2.29407C6.52509 2.85947 6.1124 3.6407 5.6989 4.5019C5.28635 5.36109 4.86755 6.31113 4.55037 7.21203C4.41359 7.60055 4.29058 7.99383 4.19573 8.37621L1.74231 10.9029L1.72929 10.9167C1.26038 11.4247 1 12.0906 1 12.782V14.25C1 14.6642 1.33579 15 1.75 15H4.75H11.25H14.25C14.6642 15 15 14.6642 15 14.25V12.782C15 12.0906 14.7396 11.4247 14.2707 10.9167L14.2577 10.9029L11.8042 8.37613C11.453 6.96246 10.679 5.24679 10.006 3.89967C9.64772 3.18245 9.3089 2.55186 9.05963 2.10049C8.9349 1.87463 8.83235 1.69321 8.76068 1.56775C8.72485 1.50501 8.69672 1.45624 8.67738 1.42287L8.6551 1.38454L8.64916 1.37436L8.64754 1.37159L8.64707 1.37078L8.64692 1.37053C8.64686 1.37044 8.64682 1.37037 8 1.75ZM12 13.5V10.731L13.1742 11.9403C13.3837 12.1704 13.5 12.4705 13.5 12.782V13.5H12ZM10.5 9.75V13.5H5.5V9.75C5.5 9.52243 5.53697 9.24483 5.60731 8.92615C5.6093 8.91788 5.61115 8.90959 5.61285 8.90127C5.69189 8.54943 5.81094 8.14845 5.96525 7.71016C6.25745 6.8802 6.65115 5.98414 7.0511 5.15116C7.3867 4.45223 7.72287 3.80561 8 3.29059C8.19827 3.65905 8.42695 4.09523 8.66413 4.57001C9.36767 5.97834 10.1103 7.65688 10.3897 8.91287C10.4644 9.2486 10.5 9.52898 10.5 9.75ZM4 10.731V13.5H2.5V12.782C2.5 12.4705 2.61627 12.1704 2.82585 11.9403L4 10.731ZM8 7C7.44772 7 7 7.44772 7 8C7 8.55228 7.44772 9 8 9C8.55228 9 9 8.55228 9 8C9 7.44772 8.55228 7 8 7Z" fill="#fff"/>
</svg>

<svg xmlns="http://www.w3.org/2000/svg" width="32" height="32" fill="none" viewBox="0 0 16 16"><path fill="#181c1f" d="M0 0h16v16H0z"/><path fill="#fff" fill-rule="evenodd" d="m8 1.75.647-.38a.75.75 0 0 0-1.294 0zm0 0-.647-.38v.002l-.003.003-.007.013-.029.05-.106.184c-.09.16-.22.39-.374.672a48 48 0 0 0-1.135 2.208c-.413.86-.831 1.81-1.149 2.71-.136.389-.26.782-.354 1.164l-2.454 2.527-.013.014A2.75 2.75 0 0 0 1 12.782v1.468c0 .414.336.75.75.75h12.5a.75.75 0 0 0 .75-.75v-1.468a2.75 2.75 0 0 0-.73-1.865l-.012-.014-2.454-2.527c-.351-1.414-1.125-3.13-1.798-4.476a50 50 0 0 0-1.329-2.477l-.022-.038-.006-.01-.001-.003V1.37h-.001zm4 11.75v-2.769l1.174 1.21c.21.23.326.53.326.841v.718zm-1.5-3.75v3.75h-5V9.75a4 4 0 0 1 .113-.849c.079-.352.198-.753.352-1.19a26 26 0 0 1 1.086-2.56c.336-.699.672-1.345.949-1.86.198.368.427.804.664 1.279.704 1.408 1.446 3.087 1.726 4.343q.11.505.11.837m-6.5.981V13.5H2.5v-.718c0-.312.116-.612.326-.842zM8 7a1 1 0 1 0 0 2 1 1 0 0 0 0-2" clip-rule="evenodd"/></svg>
